src/assets/fleet-icons/energy-online-icon.svg

<svg width="24" height="24" viewBox="0 0 24 24" fill="none" xmlns="http://www.w3.org/2000/svg">
<path d="M11.9998 23.0767C18.1174 23.0767 23.0767 18.1174 23.0767 11.9998C23.0767 5.88216 18.1174 0.922852 11.9998 0.922852C5.88216 0.922852 0.922852 5.88216 0.922852 11.9998C0.922852 18.1174 5.88216 23.0767 11.9998 23.0767Z" stroke="#01BE11" stroke-width="0.923077"/>
<path d="M10.7079 19.3848H9.88728L10.7079 13.6432H7.83712C7.36082 13.6432 7.36913 13.3811 7.52513 13.1014C7.68113 12.8226 7.56611 13.0358 7.58254 13.0026C8.64408 11.1288 10.2318 8.34109 12.3456 4.62109H13.1662L12.3456 10.3626H15.2164C15.6188 10.3626 15.6761 10.6331 15.6022 10.7808L15.5447 10.9036C12.314 16.5528 10.7078 19.3866 10.7078 19.3866L10.7079 19.3848Z" fill="#01BE11"/>
</svg>

<svg width="24" height="24" fill="none" xmlns="http://www.w3.org/2000/svg">
    <path
        d="M12 23.077c6.117 0 11.077-4.96 11.077-11.077C23.077 5.882 18.117.923 12 .923 5.882.923.923 5.883.923 12S5.883 23.077 12 23.077Z"
        stroke="#01BE11" stroke-width=".923" />
    <path
        d="M10.708 19.385h-.82l.82-5.742h-2.87c-.477 0-.469-.262-.313-.542.156-.278.041-.065.058-.098 1.061-1.874 2.649-4.662 4.763-8.382h.82l-.82 5.742h2.87c.403 0 .46.27.386.418l-.057.123a2760.22 2760.22 0 0 0-4.837 8.483v-.002Z"
        fill="#01BE11" />
</svg>
